!!!COM: Corelli, Arcangelo
!!!OTL: 
!!!ONM: Opus 5, No. 8
!!!OMV: 2
!!!CDT: 1653/2/17/-1713/1/8/
!!!OCY: Italia
**kern	**kern
*clefC	*clefG
*k[f#]	*k[f#]
*e:	*e:
*M4/4	*M4/4
2..r	2..r
8r	8b
=1	=1
4.r	8ee
.	8b
.	8e
8e	8gg
8d	8ff#
8c	4b
8d	.
8B	8bb
=2	=2
8c	8ee
4C	8e
.	8c
8A	8ee
8B	8dd#
8BB	4B
8D#	.
8BB	8bb
=3	=3
8E	8gg#
4EE	8b
.	8e
8e	8gg#
8c#	8aa
8E	4A
8AA	.
8c#	8aa
=4	=4
8d	8ff#
4D	8a
.	8d
8d	8ff#
8B	8gg
8D	4G
8GG	.
8G	8bb
=5	=5
4C#	8aa
.	8cc#
4D#	8f#
.	8aa
4E	8gg
.	4e
4GG	.
.	8gg
=6	=6
4AA	8ff
.	8a
4BB	8d
.	8ff
4C	8ee
.	8c
4GG	8r
.	8bb
=7	=7
4AA	8dd#
.	8ee
4BB	8B
.	8dd#
4E	8e
.	8gg
4D#	8ff#
.	8b
=8	=8
4E	8gg
.	8b
4D#	8ff#
.	8b
4E	8gg
.	8b
4D	8ff#
.	8b
=9	=9
2C	2ee
4BB	4dd#
4GG	4b
=10	=10
2C	4e
.	4a
4.BB	4.b
8r	8ff#
=11	=11
4.r	8bb
.	8ff#
.	8bb
8B	8aa
8e	4.gg
8B	.
8e	.
8d	16ff#
.	16ee
=12	=12
4.c#	8aa
.	8ee
.	8aa
16B	8gg
16A	.
8d	4.ff#
8A	.
8d	.
8c	8dd
=13	=13
4.B	8gg
.	8dd
.	8gg
8G	8ff#
4c	8ee
.	16aa
.	16gg
4d	8ff#
.	16bb
.	16aa
=14	=14
4e	8gg
.	16ccc
.	16bb
4f#	8aa
.	16ddd
.	16ccc
4g	8bb
.	8ddd
4B	8dd
.	8ddd
=15	=15
4c	8ee
.	8ddd
4d	8ff#
.	8ddd
4e	8gg
.	8ddd
4B	8dd
.	8ddd
=16	=16
4c	8ee
.	8ddd
4d	8ff#
.	8ddd
4e	8gg
.	8ccc
8d	8bb
8c	8aa
=17	=17
4d	4bb
4D	4aa
8G	4.gg
8A	.
8B	.
8G	8g
=18	=18
4.F#	8dd
.	8a
.	8dd
8D	8cc
8G	4.b
8A	.
8B	.
8A	8b
=19	=19
4.G#	8ee
.	8b
.	8ee
8E	8dd
8A	4.cc#
8B	.
8c#	.
8B	8cc#
=20	=20
4.A#	8ff#
.	8cc#
.	8ff#
8F#	8ee
8B	4dd#
8c#	.
8d#	8r
8B	8bb
=21	=21
4e	8gg
.	8bb
4d#	8ff#
.	8bb
4e	8gg
.	8bb
4d#	8ff#
.	8bb
=22	=22
4e	8gg
.	8bb
4d#	8ff#
.	8bb
4e	8gg
.	8bb
4G	8b
.	8bb
=23	=23
4A	8cc#
.	8bb
4B	8dd#
.	8bb
4c	8ee
.	8aa
8B	8gg
8A	8ff#
=24	=24
4B	4gg
4BB	4ff#
2E	4.ee
.	8bb
=25	=25
4e	8gg
.	8bb
4d#	8ff#
.	8bb
4e	8gg
.	8bb
4d#	8ff#
.	8bb
=26	=26
4e	8gg
.	8bb
4d#	8ff#
.	8bb
4e	8gg
.	8bb
4G	8b
.	8bb
=27	=27
4A	8cc#
.	8bb
4B	8dd#
.	8bb
4c	8ee
.	8aa
8B	8gg
8A	8ff#
=28	=28
4B	4gg
4BB	4ff#
4.E	4.ee
8r	8r
==	==
*-	*-
!!!RWG: This file only contains pitch and duration data.
!!!RWG: Transposing instruments are not transposed.
!!!RWG: Durations of rests and tied notes may be interpreted.
!!!RWG: Key is interpreted using the Humdrum key tool.
!!!SCA: 
!!!YOR: 
!!!AGN: violin
!!!AFT: stage1
!!!ENC: F. Bennion
!!!END: 1997/04/15
!!!AST: baroque
!!!YEC: Copyright 1994, Center for Computer Assisted Research in the Humanities
!!!YEM: Rights to all derivative electronic formats reserved.
!!!YEM: Refer to licensing agreement for further details.
!!!YEN: United States of America
!!!EED: W.B. Hewlett
!!!KEY: 765242623
!!!EMD: Converted from MuseData to Humdrum Aug 9, 1999, by Bret Aarden using muse2kern.
!!!VTS: 785080119
